krita/pics/tools/SVG/16/dark_krita_tool_freehandvector.svg

<?xml version="1.0" encoding="UTF-8" standalone="no"?>
<svg
   xmlns:dc="http://purl.org/dc/elements/1.1/"
   xmlns:cc="http://creativecommons.org/ns#"
   xmlns:rdf="http://www.w3.org/1999/02/22-rdf-syntax-ns#"
   xmlns:svg="http://www.w3.org/2000/svg"
   xmlns="http://www.w3.org/2000/svg"
   version="1.1"
   id="svg2"
   viewBox="0 0 16 16"
   height="16"
   width="16">
  <defs
     id="defs4" />
  <metadata
     id="metadata7">
    <rdf:RDF>
      <cc:Work
         rdf:about="">
        <dc:format>image/svg+xml</dc:format>
        <dc:type
           rdf:resource="http://purl.org/dc/dcmitype/StillImage" />
        <dc:title></dc:title>
        <dc:creator>
          <cc:Agent>
            <dc:title>Andrei Rudenko</dc:title>
          </cc:Agent>
        </dc:creator>
        <cc:license
           rdf:resource="http://creativecommons.org/licenses/by-sa/4.0/" />
      </cc:Work>
      <cc:License
         rdf:about="http://creativecommons.org/licenses/by-sa/4.0/">
        <cc:permits
           rdf:resource="http://creativecommons.org/ns#Reproduction" />
        <cc:permits
           rdf:resource="http://creativecommons.org/ns#Distribution" />
        <cc:requires
           rdf:resource="http://creativecommons.org/ns#Notice" />
        <cc:requires
           rdf:resource="http://creativecommons.org/ns#Attribution" />
        <cc:permits
           rdf:resource="http://creativecommons.org/ns#DerivativeWorks" />
        <cc:requires
           rdf:resource="http://creativecommons.org/ns#ShareAlike" />
      </cc:License>
    </rdf:RDF>
  </metadata>
  <g
     transform="translate(0,-16)"
     id="layer1"
     style="display:none">
    <path
       style="opacity:1;fill:#d2d2d2;fill-opacity:1;stroke:none;stroke-width:2;stroke-linecap:square;stroke-linejoin:miter;stroke-miterlimit:4;stroke-dasharray:none;stroke-dashoffset:1;stroke-opacity:1"
       d="m -22,-8.0000003 v 2 4 V -2.9999999e-7 h 2 4 2 V -2.0000003 v -6 z m 2,2 h 4 v 4 h -4 z"
       id="rect4240-0" />
    <path
       style="fill:none;fill-rule:evenodd;stroke:#d2d2d2;stroke-width:4;stroke-linecap:round;stroke-linejoin:miter;stroke-miterlimit:4;stroke-dasharray:none;stroke-opacity:1"
       d="M 4,12 C 10,1.9999989 18.0625,2.499999 28.0625,4.562499 18,9.9999991 18,18 22.0625,26.5"
       id="path4286" />
    <path
       style="display:inline;opacity:1;fill:#d2d2d2;fill-opacity:1;stroke:none;stroke-width:2;stroke-linecap:square;stroke-linejoin:miter;stroke-miterlimit:4;stroke-dasharray:none;stroke-dashoffset:1;stroke-opacity:1"
       d="M 24,1.4999999e-7 V 2.0000001 v 4 2 h 2 4 2 v -2 V 1.4999999e-7 Z M 26,2.0000001 h 4 v 4 h -4 z"
       id="rect4240-0-0" />
    <path
       style="display:inline;opacity:1;fill:#d2d2d2;fill-opacity:1;stroke:none;stroke-width:2;stroke-linecap:square;stroke-linejoin:miter;stroke-miterlimit:4;stroke-dasharray:none;stroke-dashoffset:1;stroke-opacity:1"
       d="m 18,24 v 2 4 2 h 2 4 2 v -2 -6 z m 2,2 h 4 v 4 h -4 z"
       id="rect4240-0-0-4" />
    <path
       style="display:inline;opacity:1;fill:#d2d2d2;fill-opacity:1;stroke:none;stroke-width:2;stroke-linecap:square;stroke-linejoin:miter;stroke-miterlimit:4;stroke-dasharray:none;stroke-dashoffset:1;stroke-opacity:1"
       d="M 0,8.0000001 V 10 14 16 H 2 6 8 V 14 8.0000001 Z M 2,10 h 4 v 4 H 2 Z"
       id="rect4240-0-0-9" />
  </g>
  <g
     transform="scale(0.5)"
     style="display:inline"
     id="g4228">
    <path
       style="color:#000000;font-style:normal;font-variant:normal;font-weight:normal;font-stretch:normal;font-size:medium;line-height:normal;font-family:sans-serif;text-indent:0;text-align:start;text-decoration:none;text-decoration-line:none;text-decoration-style:solid;text-decoration-color:#000000;letter-spacing:normal;word-spacing:normal;text-transform:none;writing-mode:lr-tb;direction:ltr;baseline-shift:baseline;text-anchor:start;white-space:normal;clip-rule:nonzero;display:inline;overflow:visible;visibility:visible;opacity:1;isolation:auto;mix-blend-mode:normal;color-interpolation:sRGB;color-interpolation-filters:linearRGB;solid-color:#000000;solid-opacity:1;fill:#373737;fill-opacity:1;fill-rule:evenodd;stroke:none;stroke-width:4;stroke-linecap:round;stroke-linejoin:miter;stroke-miterlimit:4;stroke-dasharray:none;stroke-dashoffset:0;stroke-opacity:1;color-rendering:auto;image-rendering:auto;shape-rendering:auto;text-rendering:auto;enable-background:accumulate"
       d="m 18.828125,1.1230469 c -0.443743,-0.00347 -0.883916,0.00567 -1.322266,0.027344 C 16.336928,1.2081891 15.18838,1.3585655 14.056641,1.6210938 10.460813,2.4552133 7.179066,4.5212811 4.3730469,8 H 8 V 9.8398438 C 10.132567,7.3770765 12.402119,6.1126443 14.958984,5.5195312 17.293925,4.977898 20.071936,5.1901036 23.046875,5.6660156 20.258356,8.1279927 18.614883,10.996716 18.142578,14.080078 17.642212,17.346631 18.285176,20.676456 19.525391,24 h 4.3125 C 22.38426,20.558295 21.683326,17.377677 22.095703,14.685547 22.468882,12.249315 23.667318,10.047766 26.388672,8 H 26 24 V 6 2 1.6503906 C 22.238876,1.3454309 20.509708,1.1362105 18.828125,1.1230469 Z"
       id="path4232" />
    <path
       id="path4234"
       d="m 24,0 v 2 4 2 h 2 4 2 V 6 0 Z m 2,2 h 4 v 4 h -4 z"
       style="display:inline;opacity:1;fill:#373737;fill-opacity:1;stroke:none;stroke-width:2;stroke-linecap:square;stroke-linejoin:miter;stroke-miterlimit:4;stroke-dasharray:none;stroke-dashoffset:1;stroke-opacity:1" />
    <path
       id="path4236"
       d="m 18,24 v 2 4 2 h 2 4 2 v -2 -6 z m 2,2 h 4 v 4 h -4 z"
       style="display:inline;opacity:1;fill:#373737;fill-opacity:1;stroke:none;stroke-width:2;stroke-linecap:square;stroke-linejoin:miter;stroke-miterlimit:4;stroke-dasharray:none;stroke-dashoffset:1;stroke-opacity:1" />
    <path
       id="path4238"
       d="M 0,8 V 9.9999999 14 16 H 2 6 8 V 14 8 Z M 2,9.9999999 H 6 V 14 H 2 Z"
       style="display:inline;opacity:1;fill:#373737;fill-opacity:1;stroke:none;stroke-width:2;stroke-linecap:square;stroke-linejoin:miter;stroke-miterlimit:4;stroke-dasharray:none;stroke-dashoffset:1;stroke-opacity:1" />
  </g>
  <g
     transform="translate(0,-16)"
     id="g4179"
     style="display:none">
    <path
       id="path4181"
       d="m 18.828125,3.1230469 c -0.443743,-0.00347 -0.883916,0.00567 -1.322266,0.027344 C 16.336928,3.2081891 15.18838,3.3585655 14.056641,3.6210938 10.460813,4.4552133 7.179066,6.5212811 4.3730469,10 H 8 v 1.839844 c 2.132567,-2.462768 4.402119,-3.7272 6.958984,-4.3203128 2.334941,-0.5416332 5.112952,-0.3294276 8.087891,0.1464844 -2.788519,2.4619774 -4.431992,5.3307004 -4.904297,8.4140624 -0.500366,3.266553 0.142598,4.596378 1.382813,7.919922 h 4.3125 C 22.38426,20.558295 21.683326,19.377677 22.095703,16.685547 22.468882,14.249315 23.667318,12.047766 26.388672,10 H 26 24 V 8 4 3.6503906 C 22.238876,3.3454309 20.509708,3.1362105 18.828125,3.1230469 Z"
       style="color:#000000;font-style:normal;font-variant:normal;font-weight:normal;font-stretch:normal;font-size:medium;line-height:normal;font-family:sans-serif;text-indent:0;text-align:start;text-decoration:none;text-decoration-line:none;text-decoration-style:solid;text-decoration-color:#000000;letter-spacing:normal;word-spacing:normal;text-transform:none;writing-mode:lr-tb;direction:ltr;baseline-shift:baseline;text-anchor:start;white-space:normal;clip-rule:nonzero;display:inline;overflow:visible;visibility:visible;opacity:1;isolation:auto;mix-blend-mode:normal;color-interpolation:sRGB;color-interpolation-filters:linearRGB;solid-color:#000000;solid-opacity:1;fill:#d2d2d2;fill-opacity:1;fill-rule:evenodd;stroke:none;stroke-width:4;stroke-linecap:round;stroke-linejoin:miter;stroke-miterlimit:4;stroke-dasharray:none;stroke-dashoffset:0;stroke-opacity:1;color-rendering:auto;image-rendering:auto;shape-rendering:auto;text-rendering:auto;enable-background:accumulate" />
    <path
       style="display:inline;opacity:1;fill:#d2d2d2;fill-opacity:1;stroke:none;stroke-width:2;stroke-linecap:square;stroke-linejoin:miter;stroke-miterlimit:4;stroke-dasharray:none;stroke-dashoffset:1;stroke-opacity:1"
       d="m 16,20 v 4 4 4 h 4 4 4 v -4 -8 z m 4,4 h 4 v 4 h -4 z"
       id="path4185" />
    <path
       style="display:inline;opacity:1;fill:#d2d2d2;fill-opacity:1;stroke:none;stroke-width:2;stroke-linecap:square;stroke-linejoin:miter;stroke-miterlimit:4;stroke-dasharray:none;stroke-dashoffset:1;stroke-opacity:1"
       d="m 0,6 v 4 4 4 h 4 4 4 V 14 6 Z m 4,4 h 4 v 4 H 4 Z"
       id="path4185-2" />
    <path
       style="display:inline;opacity:1;fill:#d2d2d2;fill-opacity:1;stroke:none;stroke-width:2;stroke-linecap:square;stroke-linejoin:miter;stroke-miterlimit:4;stroke-dasharray:none;stroke-dashoffset:1;stroke-opacity:1"
       d="m 20,0 v 4 4 4 h 4 4 4 v -4 -8.00000001 z m 4,4 h 4 v 4 h -4 z"
       id="path4185-5" />
  </g>
  <g
     transform="translate(0,-16)"
     id="layer3"
     style="display:none">
    <path
       style="opacity:1;fill:#d2d2d2;fill-opacity:1;stroke:none;stroke-width:2;stroke-linecap:square;stroke-linejoin:miter;stroke-miterlimit:4;stroke-dasharray:none;stroke-dashoffset:1;stroke-opacity:1"
       d="M 0,8.0000001 V 10 14 16 H 2 6 8 V 14 8.0000001 Z M 2,10 h 4 v 4 H 2 Z"
       id="rect4240-9" />
    <path
       style="opacity:1;fill:#d2d2d2;fill-opacity:1;stroke:none;stroke-width:2;stroke-linecap:square;stroke-linejoin:miter;stroke-miterlimit:4;stroke-dasharray:none;stroke-dashoffset:1;stroke-opacity:1"
       d="m 24,0 v 2 4 2 h 2 4 2 V 6 0 Z m 2,2 h 4 v 4 h -4 z"
       id="rect4240-1-8" />
    <path
       style="opacity:1;fill:#d2d2d2;fill-opacity:1;stroke:none;stroke-width:2;stroke-linecap:square;stroke-linejoin:miter;stroke-miterlimit:4;stroke-dasharray:none;stroke-dashoffset:1;stroke-opacity:1"
       d="m 18,22 v 2 4 2 h 2 4 2 v -2 -6 z m 2,2 h 4 v 4 h -4 z"
       id="rect4240-09-7" />
    <path
       style="color:#000000;font-style:normal;font-variant:normal;font-weight:normal;font-stretch:normal;font-size:medium;line-height:normal;font-family:sans-serif;text-indent:0;text-align:start;text-decoration:none;text-decoration-line:none;text-decoration-style:solid;text-decoration-color:#000000;letter-spacing:normal;word-spacing:normal;text-transform:none;writing-mode:lr-tb;direction:ltr;baseline-shift:baseline;text-anchor:start;white-space:normal;clip-rule:nonzero;display:inline;overflow:visible;visibility:visible;opacity:1;isolation:auto;mix-blend-mode:normal;color-interpolation:sRGB;color-interpolation-filters:linearRGB;solid-color:#000000;solid-opacity:1;fill:#d2d2d2;fill-opacity:1;fill-rule:evenodd;stroke:none;stroke-width:2;stroke-linecap:round;stroke-linejoin:miter;stroke-miterlimit:4;stroke-dasharray:none;stroke-dashoffset:0;stroke-opacity:1;color-rendering:auto;image-rendering:auto;shape-rendering:auto;text-rendering:auto;enable-background:accumulate"
       d="m 18.85336,1.9500547 c -0.424368,-0.00332 -0.846002,0.00308 -1.263672,0.021484 C 16.475901,2.020618 15.386695,2.1513731 14.320156,2.3816953 11.148794,3.0665618 8.234001,5.0889976 5.6699219,8 H 8 v 0.4238281 c 2.056868,-2.042128 4.282766,-3.5579214 6.742032,-4.0890078 2.727082,-0.5889226 5.876166,-0.3339895 9.257812,0.203125 v -2.125 C 22.234271,2.145073 20.515169,1.9630512 18.85336,1.9500547 Z M 25.213867,6.15625 C 22.316068,8.5097295 20.592685,11.223427 19.999023,14.185547 19.494716,16.70183 19.732181,19.327125 20.481445,22 h 2.097656 C 21.772672,19.364814 21.502227,16.86398 21.959961,14.580078 22.435833,12.205669 23.686088,10.003133 26.000976,8 h -0.787109 z"
       id="path4286-4" />
  </g>
</svg>

<svg xmlns:dc="http://purl.org/dc/elements/1.1/" xmlns:cc="http://creativecommons.org/ns#" xmlns:rdf="http://www.w3.org/1999/02/22-rdf-syntax-ns#" xmlns="http://www.w3.org/2000/svg" version="1.1" id="svg2" viewBox="0 0 16 16" height="16" width="16"><metadata id="metadata7"><rdf:RDF><cc:Work><dc:format>image/svg+xml</dc:format><dc:type rdf:resource="http://purl.org/dc/dcmitype/StillImage"/><dc:title/><dc:creator><cc:Agent><dc:title>Andrei Rudenko</dc:title></cc:Agent></dc:creator><cc:license rdf:resource="http://creativecommons.org/licenses/by-sa/4.0/"/></cc:Work><cc:License rdf:about="http://creativecommons.org/licenses/by-sa/4.0/"><cc:permits rdf:resource="http://creativecommons.org/ns#Reproduction"/><cc:permits rdf:resource="http://creativecommons.org/ns#Distribution"/><cc:requires rdf:resource="http://creativecommons.org/ns#Notice"/><cc:requires rdf:resource="http://creativecommons.org/ns#Attribution"/><cc:permits rdf:resource="http://creativecommons.org/ns#DerivativeWorks"/><cc:requires rdf:resource="http://creativecommons.org/ns#ShareAlike"/></cc:License></rdf:RDF></metadata><g transform="scale(.5)" style="display:inline" id="g4228"><path style="color:#000;font-style:normal;font-variant:normal;font-weight:400;font-stretch:normal;font-size:medium;line-height:normal;font-family:sans-serif;text-indent:0;text-align:start;text-decoration:none;text-decoration-line:none;text-decoration-style:solid;text-decoration-color:#000;letter-spacing:normal;word-spacing:normal;text-transform:none;writing-mode:lr-tb;direction:ltr;baseline-shift:baseline;text-anchor:start;white-space:normal;clip-rule:nonzero;display:inline;overflow:visible;visibility:visible;opacity:1;isolation:auto;mix-blend-mode:normal;color-interpolation:sRGB;color-interpolation-filters:linearRGB;solid-color:#000;solid-opacity:1;fill:#373737;fill-opacity:1;fill-rule:evenodd;stroke:none;stroke-width:4;stroke-linecap:round;stroke-linejoin:miter;stroke-miterlimit:4;stroke-dasharray:none;stroke-dashoffset:0;stroke-opacity:1;color-rendering:auto;image-rendering:auto;shape-rendering:auto;text-rendering:auto;enable-background:accumulate" d="M18.828 1.123c-.444-.003-.884.006-1.322.027a19.471 19.471 0 0 0-3.45.471C10.462 2.455 7.18 4.521 4.374 8H8v1.84c2.133-2.463 4.402-3.727 6.959-4.32 2.335-.542 5.113-.33 8.088.146-2.789 2.462-4.432 5.33-4.904 8.414-.5 3.267.142 6.596 1.382 9.92h4.313c-1.454-3.442-2.155-6.622-1.742-9.314.373-2.437 1.571-4.638 4.293-6.686H24V1.65c-1.761-.305-3.49-.514-5.172-.527z" id="path4232"/><path id="path4234" d="M24 0v8h8V0zm2 2h4v4h-4z" style="display:inline;opacity:1;fill:#373737;fill-opacity:1;stroke:none;stroke-width:2;stroke-linecap:square;stroke-linejoin:miter;stroke-miterlimit:4;stroke-dasharray:none;stroke-dashoffset:1;stroke-opacity:1"/><path id="path4236" d="M18 24v8h8v-8zm2 2h4v4h-4z" style="display:inline;opacity:1;fill:#373737;fill-opacity:1;stroke:none;stroke-width:2;stroke-linecap:square;stroke-linejoin:miter;stroke-miterlimit:4;stroke-dasharray:none;stroke-dashoffset:1;stroke-opacity:1"/><path id="path4238" d="M0 8v8h8V8zm2 2h4v4H2z" style="display:inline;opacity:1;fill:#373737;fill-opacity:1;stroke:none;stroke-width:2;stroke-linecap:square;stroke-linejoin:miter;stroke-miterlimit:4;stroke-dasharray:none;stroke-dashoffset:1;stroke-opacity:1"/></g></svg>
